SVG_Azure_All/Virtual WAN.svg

<?xml version="1.0" encoding="UTF-8" standalone="no"?>
<!-- Generated by Microsoft Visio, SVG Export Virtual WAN.svg Page-1 -->

<svg
   xmlns:dc="http://purl.org/dc/elements/1.1/"
   xmlns:cc="http://creativecommons.org/ns#"
   xmlns:rdf="http://www.w3.org/1999/02/22-rdf-syntax-ns#"
   xmlns:svg="http://www.w3.org/2000/svg"
   xmlns="http://www.w3.org/2000/svg"
   xmlns:sodipodi="http://sodipodi.sourceforge.net/DTD/sodipodi-0.dtd"
   xmlns:inkscape="http://www.inkscape.org/namespaces/inkscape"
   width="0.78735983in"
   height="0.79147756in"
   viewBox="0 0 56.69 56.986222"
   xml:space="preserve"
   class="st6"
   version="1.1"
   id="svg73"
   sodipodi:docname="Virtual WAN.svg"
   style="font-size:12px;overflow:visible;color-interpolation-filters:sRGB;fill:none;fill-rule:evenodd;stroke-linecap:square;stroke-miterlimit:3"
   inkscape:version="0.92.5 (2060ec1f9f, 2020-04-08)"><metadata
   id="metadata77"><rdf:RDF><cc:Work
       rdf:about=""><dc:format>image/svg+xml</dc:format><dc:type
         rdf:resource="http://purl.org/dc/dcmitype/StillImage" /></cc:Work></rdf:RDF></metadata><sodipodi:namedview
   pagecolor="#ffffff"
   bordercolor="#666666"
   borderopacity="1"
   objecttolerance="10"
   gridtolerance="10"
   guidetolerance="10"
   inkscape:pageopacity="0"
   inkscape:pageshadow="2"
   inkscape:window-width="640"
   inkscape:window-height="480"
   id="namedview75"
   showgrid="false"
   inkscape:zoom="1.4155769"
   inkscape:cx="37.79514"
   inkscape:cy="37.971185"
   inkscape:window-x="0"
   inkscape:window-y="0"
   inkscape:window-maximized="0"
   inkscape:current-layer="svg73" />
	<style
   type="text/css"
   id="style2">
	<![CDATA[
		.st1 {fill:url(#grad0-6);stroke:none;stroke-linecap:butt;stroke-width:34.0111}
		.st2 {fill:#f2f2f2;stroke:none;stroke-linecap:butt;stroke-width:34.0111}
		.st3 {fill:#0078d4;stroke:none;stroke-linecap:butt;stroke-width:34.0111}
		.st4 {fill:#e6e6e6;stroke:none;stroke-linecap:butt;stroke-width:34.0111}
		.st5 {fill:#ce74b6;stroke:none;stroke-linecap:butt;stroke-width:34.0111}
		.st6 {fill:none;fill-rule:evenodd;font-size:12px;overflow:visible;stroke-linecap:square;stroke-miterlimit:3}
	]]>
	</style>

	<defs
   id="Patterns_And_Gradients">
		<linearGradient
   id="grad0-6"
   x1="0"
   y1="98.598596"
   x2="48.269611"
   y2="98.598596"
   gradientTransform="scale(1.1744449,0.85146605)"
   gradientUnits="userSpaceOnUse">
			<stop
   offset="0"
   stop-color="#198ab3"
   stop-opacity="1"
   id="stop4" />
			<stop
   offset="0.11"
   stop-color="#22a5cb"
   stop-opacity="1"
   id="stop6" />
			<stop
   offset="0.23"
   stop-color="#29bade"
   stop-opacity="1"
   id="stop8" />
			<stop
   offset="0.37"
   stop-color="#2ec9eb"
   stop-opacity="1"
   id="stop10" />
			<stop
   offset="0.53"
   stop-color="#31d1f3"
   stop-opacity="1"
   id="stop12" />
			<stop
   offset="0.78"
   stop-color="#32d4f5"
   stop-opacity="1"
   id="stop14" />
		</linearGradient>
	</defs>
	<g
   id="g71"
   transform="translate(-34.0111,-34.010739)">
		<title
   id="title18">Page-1</title>
		<g
   id="group212-1"
   transform="translate(34.0111,-34.3269)">
			<title
   id="title20">Virtual WAN</title>
			<g
   id="group213-2">
				<title
   id="title22">g37</title>
				<g
   id="shape214-3"
   transform="translate(0,-15.616)">
					<title
   id="title24">path19</title>
					<path
   d="M 56.69,112.14 A 12.8526,13.0835 -180 0 0 45.69,99.58 16.2442,16.536 -180 0 0 29.01,83.96 16.7111,17.0113 -180 0 0 13.34,94.82 15.6506,15.9317 -180 0 0 0,109.76 15.3805,15.6567 -180 0 0 16.01,125.04 h 28.01 a 12.6725,12.9002 -180 0 0 12.67,-12.9 z"
   class="st1"
   id="path26"
   inkscape:connector-curvature="0"
   style="fill:url(#grad0-6);stroke:none;stroke-width:34.01110077;stroke-linecap:butt" />
				</g>
				<g
   id="shape215-7"
   transform="translate(13.673)">
					<title
   id="title29">circle21</title>
					<ellipse
   cx="14.6735"
   cy="110.1"
   rx="14.6735"
   ry="14.9371"
   class="st2"
   id="ellipse31"
   style="fill:#f2f2f2;stroke:none;stroke-width:34.01110077;stroke-linecap:butt" />
				</g>
				<g
   id="shape216-9"
   transform="translate(15.3404,-1.69739)">
					<title
   id="title34">path23</title>
					<path
   d="M 25.35,102.29 A 15.3404,15.616 -180 0 0 4,99.24 15.2104,15.4836 -180 1 0 22.68,123.68 15.197,15.47 -180 0 0 25.35,102.29 Z M 0,110.78 a 15.6973,15.9793 0 0 1 1.33,-5.43 H 5 a 25.9187,26.3843 -180 0 0 -0.66,5.43 z m 7,-5.43 h 5.01 v 5.43 H 6.34 A 25.9187,26.3843 0 0 1 7,105.35 Z m 7.01,0 h 5 a 25.9187,26.3843 0 0 1 0.67,5.43 h -5.67 z m -1.67,7.13 v 5.43 H 7 l -1,-5.09 z m 1.67,0 h 6 a 33.2521,33.8494 0 0 1 -0.67,5.43 h -5.33 z m 8,0 h 4.34 a 15.6973,15.9793 0 0 1 -1.34,5.43 h -3.67 a 25.9187,26.3843 -180 0 0 0.67,-5.43 z m 0,-1.7 a 33.2521,33.8494 -180 0 0 -0.67,-5.43 h 3.67 a 13.9831,14.2343 0 0 1 1.34,5.43 z m 1.67,-7.47 h -3 a 15.0069,15.2765 -180 0 0 -2,-4.07 14.7668,15.0321 0 0 1 5,4.07 z m -5,0 h -4.67 v -4.75 a 7.24002,7.37008 0 0 1 4.67,4.75 z m -6.34,-4.75 v 5.09 H 7.67 a 7.06327,7.19016 0 0 1 4.67,-5.09 z M 5,100.93 a 18.6153,18.9497 0 0 1 2.67,-1.69 10.3381,10.5238 -180 0 0 -2,4.41 h -3 A 9.00417,9.16592 0 0 1 5,100.93 Z M 0,112.82 H 4.34 A 33.2521,33.8494 -180 0 0 5,118.25 H 1.33 A 17.8383,18.1587 0 0 1 0,112.82 Z m 2.67,7.13 h 3 l 2,4.07 a 11.6421,11.8512 0 0 1 -5,-4.07 z m 5,0 h 4.34 v 5.09 a 8.11376,8.25951 0 0 1 -4.34,-5.09 z m 6.34,5.09 v -5.09 h 4.33 a 6.56304,6.68094 0 0 1 -4.33,5.09 z m 7.33,-2.72 a 8.74405,8.90113 0 0 1 -3,1.7 11.2686,11.471 -180 0 0 2,-4.07 h 3 a 4.48208,4.56259 0 0 1 -2,2.37 z"
   class="st3"
   id="path36"
   inkscape:connector-curvature="0"
   style="fill:#0078d4;stroke:none;stroke-width:34.01110077;stroke-linecap:butt" />
				</g>
				<g
   id="shape217-11"
   transform="translate(8.00371,-20.0292)">
					<title
   id="title39">path25</title>
					<path
   d="M 7.34,125.04 A 13.4229,13.664 0 0 1 0,115.19 12.159,12.3774 0 0 1 5,105.35 l 2,-1.7 1.67,2.04 -2,1.69 a 8.36721,8.51752 -180 0 0 -4,7.47 10.108,10.2896 -180 0 0 6,7.81 z"
   class="st4"
   id="path41"
   inkscape:connector-curvature="0"
   style="fill:#e6e6e6;stroke:none;stroke-width:34.01110077;stroke-linecap:butt" />
				</g>
				<g
   id="shape218-13"
   transform="translate(12.339,-36.6637)">
					<title
   id="title44">circle27</title>
					<ellipse
   cx="3.66836"
   cy="121.303"
   rx="3.66836"
   ry="3.7342601"
   class="st2"
   id="ellipse46"
   style="fill:#f2f2f2;stroke:none;stroke-width:34.01110077;stroke-linecap:butt" />
				</g>
				<g
   id="shape219-15"
   transform="translate(39.3516,-20.0292)">
					<title
   id="title49">path29</title>
					<path
   d="M 1.33,125.04 0,122.66 a 10.8684,11.0636 -180 0 0 6,-7.81 9.16424,9.32887 -180 0 0 -4,-7.47 l -2,-1.35 1.67,-2.04 2,1.36 a 10.2414,10.4254 0 0 1 5,9.84 13.4229,13.664 0 0 1 -7.34,9.85 z"
   class="st4"
   id="path51"
   inkscape:connector-curvature="0"
   style="fill:#e6e6e6;stroke:none;stroke-width:34.01110077;stroke-linecap:butt" />
				</g>
				<g
   id="shape220-17"
   transform="translate(36.6836,-36.6637)">
					<title
   id="title54">circle31</title>
					<ellipse
   cx="3.66836"
   cy="121.303"
   rx="3.66836"
   ry="3.7342601"
   class="st2"
   id="ellipse56"
   style="fill:#f2f2f2;stroke:none;stroke-width:34.01110077;stroke-linecap:butt" />
				</g>
				<g
   id="shape221-19"
   transform="translate(12.339,-17.3134)">
					<title
   id="title59">circle33</title>
					<ellipse
   cx="3.66836"
   cy="121.303"
   rx="3.66836"
   ry="3.7342601"
   class="st5"
   id="ellipse61"
   style="fill:#ce74b6;stroke:none;stroke-width:34.01110077;stroke-linecap:butt" />
				</g>
				<g
   id="shape222-21"
   transform="translate(36.6836,-17.3134)">
					<title
   id="title64">circle35</title>
					<ellipse
   cx="3.66836"
   cy="121.303"
   rx="3.66836"
   ry="3.7342601"
   class="st5"
   id="ellipse66"
   style="fill:#ce74b6;stroke:none;stroke-width:34.01110077;stroke-linecap:butt" />
				</g>
			</g>
		</g>
	</g>
</svg>

<?xml version="1.0" encoding="UTF-8" standalone="no"?>
<!DOCTYPE svg PUBLIC "-//W3C//DTD SVG 1.1//EN" "http://www.w3.org/Graphics/SVG/1.1/DTD/svg11.dtd">
<!-- Generated by Microsoft Visio, SVG Export Virtual WAN.svg Page-1 -->
<svg xmlns="http://www.w3.org/2000/svg" xmlns:xlink="http://www.w3.org/1999/xlink" xmlns:ev="http://www.w3.org/2001/xml-events"
		width="1.73215in" height="1.73663in" viewBox="0 0 124.715 125.037" xml:space="preserve" color-interpolation-filters="sRGB"
		class="st6">
	<style type="text/css">
	<![CDATA[
		.st1 {fill:url(#grad0-6);stroke:none;stroke-linecap:butt;stroke-width:34.0111}
		.st2 {fill:#f2f2f2;stroke:none;stroke-linecap:butt;stroke-width:34.0111}
		.st3 {fill:#0078d4;stroke:none;stroke-linecap:butt;stroke-width:34.0111}
		.st4 {fill:#e6e6e6;stroke:none;stroke-linecap:butt;stroke-width:34.0111}
		.st5 {fill:#ce74b6;stroke:none;stroke-linecap:butt;stroke-width:34.0111}
		.st6 {fill:none;fill-rule:evenodd;font-size:12px;overflow:visible;stroke-linecap:square;stroke-miterlimit:3}
	]]>
	</style>

	<defs id="Patterns_And_Gradients">
		<linearGradient id="grad0-6" x1="0" y1="0" x2="1" y2="0" gradientTransform="rotate(-90 0.5 0.5)">
			<stop offset="0" stop-color="#198ab3" stop-opacity="1"/>
			<stop offset="0.11" stop-color="#22a5cb" stop-opacity="1"/>
			<stop offset="0.23" stop-color="#29bade" stop-opacity="1"/>
			<stop offset="0.37" stop-color="#2ec9eb" stop-opacity="1"/>
			<stop offset="0.53" stop-color="#31d1f3" stop-opacity="1"/>
			<stop offset="0.78" stop-color="#32d4f5" stop-opacity="1"/>
		</linearGradient>
	</defs>
	<g>
		<title>Page-1</title>
		<g id="group212-1" transform="translate(34.0111,-34.3269)">
			<title>Virtual WAN</title>
			<g id="group213-2">
				<title>g37</title>
				<g id="shape214-3" transform="translate(0,-15.616)">
					<title>path19</title>
					<path d="M56.69 112.14 A12.8526 13.0835 -180 0 0 45.69 99.58 A16.2442 16.536 -180 0 0 29.01 83.96 A16.7111 17.0113
								 -180 0 0 13.34 94.82 A15.6506 15.9317 -180 0 0 -0 109.76 A15.3805 15.6567 -180 0 0 16.01 125.04
								 L44.02 125.04 A12.6725 12.9002 -180 0 0 56.69 112.14 Z" class="st1"/>
				</g>
				<g id="shape215-7" transform="translate(13.673,-2.70006E-13)">
					<title>circle21</title>
					<ellipse cx="14.6735" cy="110.1" rx="14.6735" ry="14.9371" class="st2"/>
				</g>
				<g id="shape216-9" transform="translate(15.3404,-1.69739)">
					<title>path23</title>
					<path d="M25.35 102.29 A15.3404 15.616 -180 0 0 4 99.24 A15.2104 15.4836 -180 1 0 22.68 123.68 A15.197 15.47
								 -180 0 0 25.35 102.29 ZM0 110.78 A15.6973 15.9793 0 0 1 1.33 105.35 L5 105.35 A25.9187 26.3843 -180
								 0 0 4.34 110.78 L0 110.78 ZM7 105.35 L12.01 105.35 L12.01 110.78 L6.34 110.78 A25.9187 26.3843 0
								 0 1 7 105.35 ZM14.01 105.35 L19.01 105.35 A25.9187 26.3843 0 0 1 19.68 110.78 L14.01 110.78 L14.01
								 105.35 ZM12.34 112.48 L12.34 117.91 L7 117.91 L6 112.82 L12.34 112.48 ZM14.01 112.48 L20.01 112.48
								 A33.2521 33.8494 0 0 1 19.34 117.91 L14.01 117.91 L14.01 112.48 ZM22.01 112.48 L26.35 112.48 A15.6973
								 15.9793 0 0 1 25.01 117.91 L21.34 117.91 A25.9187 26.3843 -180 0 0 22.01 112.48 ZM22.01 110.78 A33.2521
								 33.8494 -180 0 0 21.34 105.35 L25.01 105.35 A13.9831 14.2343 0 0 1 26.35 110.78 L22.01 110.78 ZM23.68
								 103.31 L20.68 103.31 A15.0069 15.2765 -180 0 0 18.68 99.24 A14.7668 15.0321 0 0 1 23.68 103.31 ZM18.68
								 103.31 L14.01 103.31 L14.01 98.56 A7.24002 7.37008 0 0 1 18.68 103.31 ZM12.34 98.56 L12.34 103.65
								 L7.67 103.65 A7.06327 7.19016 0 0 1 12.34 98.56 ZM5 100.93 A18.6153 18.9497 0 0 1 7.67 99.24 A10.3381
								 10.5238 -180 0 0 5.67 103.65 L2.67 103.65 A9.00417 9.16592 0 0 1 5 100.93 ZM0 112.82 L4.34 112.82
								 A33.2521 33.8494 -180 0 0 5 118.25 L1.33 118.25 A17.8383 18.1587 0 0 1 0 112.82 ZM2.67 119.95 L5.67
								 119.95 L7.67 124.02 A11.6421 11.8512 0 0 1 2.67 119.95 ZM7.67 119.95 L12.01 119.95 L12.01 125.04
								 A8.11376 8.25951 0 0 1 7.67 119.95 ZM14.01 125.04 L14.01 119.95 L18.34 119.95 A6.56304 6.68094 0
								 0 1 14.01 125.04 ZM21.34 122.32 A8.74405 8.90113 0 0 1 18.34 124.02 A11.2686 11.471 -180 0 0 20.34
								 119.95 L23.34 119.95 A4.48208 4.56259 0 0 1 21.34 122.32 Z" class="st3"/>
				</g>
				<g id="shape217-11" transform="translate(8.00371,-20.0292)">
					<title>path25</title>
					<path d="M7.34 125.04 A13.4229 13.664 0 0 1 -0 115.19 A12.159 12.3774 0 0 1 5 105.35 L7 103.65 L8.67 105.69 L6.67
								 107.38 A8.36721 8.51752 -180 0 0 2.67 114.85 A10.108 10.2896 -180 0 0 8.67 122.66 L7.34 125.04 Z"
							class="st4"/>
				</g>
				<g id="shape218-13" transform="translate(12.339,-36.6637)">
					<title>circle27</title>
					<ellipse cx="3.66836" cy="121.303" rx="3.66836" ry="3.73426" class="st2"/>
				</g>
				<g id="shape219-15" transform="translate(39.3516,-20.0292)">
					<title>path29</title>
					<path d="M1.33 125.04 L0 122.66 A10.8684 11.0636 -180 0 0 6 114.85 A9.16424 9.32887 -180 0 0 2 107.38 L0 106.03
								 L1.67 103.99 L3.67 105.35 A10.2414 10.4254 0 0 1 8.67 115.19 A13.4229 13.664 0 0 1 1.33 125.04 Z"
							class="st4"/>
				</g>
				<g id="shape220-17" transform="translate(36.6836,-36.6637)">
					<title>circle31</title>
					<ellipse cx="3.66836" cy="121.303" rx="3.66836" ry="3.73426" class="st2"/>
				</g>
				<g id="shape221-19" transform="translate(12.339,-17.3134)">
					<title>circle33</title>
					<ellipse cx="3.66836" cy="121.303" rx="3.66836" ry="3.73426" class="st5"/>
				</g>
				<g id="shape222-21" transform="translate(36.6836,-17.3134)">
					<title>circle35</title>
					<ellipse cx="3.66836" cy="121.303" rx="3.66836" ry="3.73426" class="st5"/>
				</g>
			</g>
		</g>
	</g>
</svg>
